!!!!SEGMENT: pl-kk--kk-i-7--002_anonim--kyrie.krn
!!!cenid: 16xx:792
!!!COM: Anonim
!!!COM-rismID: pe30004985
!!!CDT:
!!!CNT:
!!!OTL: Kyrie
!!!PDT:
!!!AGN: Sacred
!!!SMS-siglum: PL-Kk
!!!SMS-shelfmark: Kk.I.7
!!!SMS-shelfwork: 002 W
!!!SMS-variant:
!!!SMS-altvar:
!!!NIFC-rismSourceID: 300258079
!!!NIFC-islandoraID: pl-kk:1956
!!!URL-pdf-islandora: https://repozytorium.nifc.pl/islandora/object/pl-kk%3A1956/datastream/PDF/view
!!!URL-scan: https://polish.musicsources.pl/pl/lokalizacje/galeria/rekopisy/6140 @EN{Scan on Polish Music Herritage in Open Access Website} @PL{Skany w portalu Dziedzictwo Muzyki Polskiej w otwartym dostępie}
!!!ONB-nifc: UWAGA: C (skan 0004, s.2-3), A (0091, s.2-3), T(0169, s. 2), B(0256, s.2-3). Kyrie+Christe
!!!AIN: 1 alto 1 empty 1 tenor 1 vox
!!!key:
**kern	**text	**kern	**text	**kern	**text	**kern	**text
*part4	*part4	*part3	*part3	*part2	*part2	*part1	*part1
*staff4	*staff4	*staff3	*staff3	*staff2	*staff2	*staff1	*staff1
*Iempty	*	*Itenor	*	*Ialto	*	*Ivox	*
*I"[Baſso]	*	*I"[Tenore]	*	*I"[Alto]	*	*I"[Canto]	*
*I'B	*	*I'T	*	*I'A	*	*I'S	*
*clefF4	*	*clefC4	*	*clefC4	*	*clefC3	*
*k[b-]	*	*k[b-]	*	*k[b-]	*	*k[b-]	*
*F:	*	*F:	*	*F:	*	*F:	*
*M2/1	*	*M2/1	*	*M2/1	*	*M2/1	*
*met(c|)	*	*met(c|)	*	*met(c|)	*	*met(c|)	*
=1-	=1-	=1-	=1-	=1-	=1-	=1-	=1-
*all\right	*	*all\right	*	*all\right	*	*all\right	*
!LO:TX:t=P:problem=kreska pseudotaktowa	!	!	!	!LO:TX:t=P:problem=kreska pseudotaktowa	!	!LO:TX:t=P:problem=kreska pseudotaktowa	!
0r	.	1F	Ky-	2r	.	00r	.
.	.	.	.	2.F/	Ky-	.	.
!	!	!LO:TX:t=P:problem=kreska pseudotaktowa	!	!	!	!	!
.	.	1D	-ri-	.	.	.	.
.	.	.	.	4F/	-ri-	.	.
.	.	.	.	2D/	-e	.	.
=2-	=2-	=2-	=2-	=2-	=2-	=2-	=2-
*	*	*lig	*	*	*	*	*
!	!	!	!	!LO:N:vis=1	!	!	!
1BB-	Ky-	1F	-e	1.F	e-	.	.
2FF/	-ri-	1G	.	.	.	.	.
2C/	-e	.	.	2E/	-ley-	.	.
*	*	*Xlig	*	*	*	*	*
=3-	=3-	=3-	=3-	=3-	=3-	=3-	=3-
*	*	*lig	*	*	*	*	*
!	!	!	!	!LO:TX:t=P:problem=kreska pseudotaktowa	!	!	!
2FF/	e-	1A	.	1F	-son	1f	Ky-
*2\right	*	*	*	*	*	*	*
!LO:TX:t=P:problem=kreska pseudotaktowa	!	!	!	!	!	!	!
2F\	.	.	.	.	.	.	.
*lig	*	*	*	*	*	*	*
!	!	!	!	!LO:N:vis=2	!	!LO:TX:t=P:problem=kreska pseudotaktowa	!
1G	.	1B-	.	1r	.	1d	-ri-
*	*	*Xlig	*	*	*	*	*
=4-	=4-	=4-	=4-	=4-	=4-	=4-	=4-
*	*	*lig	*	*2\right	*ij	*lig	*
1.F	.	1A	.	2c\	Ky-	1f	-e
.	.	.	.	2A/	-ri-	.	.
.	.	1G	.	2.c\	-e	1g	.
*Xlig	*	*Xlig	*	*col	*	*Xlig	*
!LO:TX:t=P:problem=kreska pseudotaktowa	!	!	!	!	!	!	!
2E\	.	.	.	.	.	.	.
!	!	!	!	!LO:TX:t=P:problem=kreska pseudotaktowa	!	!	!
.	.	.	.	4B-\	.	.	.
*	*	*	*	*Xcol	*	*	*
=5-	=5-	=5-	=5-	=5-	=5-	=5-	=5-
*	*	*custos:D	*	*	*	*	*
*	*	*	*	*lig	*	*	*
2.D/	.	1F	e-	1A	e-	4a\	e-
.	.	.	.	.	.	4g\	.
*	*	*	*	*	*	*2\right	*
.	.	.	.	.	.	2.f\	.
!LO:TX:t=P:problem=kreska pseudotaktowa	!	!	!	!	!	!	!
4C/	.	.	.	.	.	.	.
!	!	!LO:LB:g=original	!	!LO:N:vis=1	!	!	!
1BB-	.	1D	.	2.B-\	.	.	.
.	.	.	.	.	.	4e\	.
!	!	!	!	!	!	!LO:TX:t=P:problem=kreska pseudotaktowa	!
.	.	.	.	.	.	2d\	-lei-
*	*	*	*	*Xlig	*	*	*
!	!	!	!	!LO:TX:t=P:problem=kreska pseudotaktowa	!	!	!
.	.	.	.	4A/	.	.	.
=6-	=6-	=6-	=6-	=6-	=6-	=6-	=6-
1C	-lei-	1E	-lei-	4G/	.	1c	-ſon
.	.	.	.	4F/	.	.	.
.	.	.	.	2G/	-ley-	.	.
!LO:N:vis=0	!	!	!	!	!	!LO:N:vis=0	!
1FF;	-ſon.	1F;	-ſon	1A;	-son	1c;	.
*	*	*	*	*	*Xij	*	*
=7||-	=7||-	=7||-	=7||-	=7||-	=7||-	=7||-	=7||-
*M2/1	*	*M2/1	*	*M2/1	*	*M2/1	*
*met(c|)	*	*met(c|)	*	*met(c|)	*	*met(c|)	*
*	*	*lig	*	*	*	*	*
!LO:TX:t=P:problem=kreska pseudotaktowa	!	!	!	!LO:TX:t=P:problem=kreska pseudotaktowa	!	!LO:TX:t=P:problem=kreska pseudotaktowa	!
1r	.	1F	CHri-	00r	.	00r	.
(1C	CHri-	1c	.	.	.	.	.
*	*	*Xlig	*	*	*	*	*
=8-	=8-	=8-	=8-	=8-	=8-	=8-	=8-
*	*	*lig	*	*	*	*	*
1F)	.	1c	-ſte	.	.	.	.
2D\	-ſte	1B-	.	.	.	.	.
2E\	.	.	.	.	.	.	.
*	*	*Xlig	*	*	*	*	*
=9-	=9-	=9-	=9-	=9-	=9-	=9-	=9-
*custos:G	*	*	*	*	*	*	*
!LO:TX:t=P:problem=kreska pseudotaktowa	!	!	!	!	!	!	!
*	*	*lig	*	*	*	*	*
1F	e-	1A	.	1F	CHri-	2c/	CHri-
.	.	.	.	.	.	2f\	.
!LO:PB:g=original	!	!	!	!	!	!	!
1G	.	1B-	.	2B-\	-ſte	2d\	-ſte
!	!	!	!	!LO:TX:t=P:problem=kreska pseudotaktowa	!	!LO:TX:t=P:problem=kreska pseudotaktowa	!
.	.	.	.	2G/	.	2e\	e-
*	*	*Xlig	*	*	*	*	*
=10-	=10-	=10-	=10-	=10-	=10-	=10-	=10-
*	*	*lig	*	*	*	*	*
2.F\	.	1c	.	4A\	.	0f	-lei-
.	.	.	.	4B-\	.	.	.
.	.	.	.	1c	e-	.	.
!LO:TX:t=P:problem=kreska pseudotaktowa	!	!	!	!	!	!	!
4E\	.	.	.	.	.	.	.
2.D/	.	1d	.	.	.	.	.
*	*	*	*	*custos:A	*	*	*
!	!	!	!	!LO:TX:t=P:problem=kreska pseudotaktowa	!	!	!
.	.	.	.	2B-\	.	.	.
4E\	.	.	.	.	.	.	.
*	*	*Xlig	*	*	*	*	*
!	!	!	!	!LO:LB:g=original	!	!	!
=11-	=11-	=11-	=11-	=11-	=11-	=11-	=11-
*	*	*lig	*	*	*	*	*
!	!	!	!	!	!	!LO:TX:t=P:problem=kreska pseudotaktowa	!
2F\	.	1c	e-	2.A/	.	0f	-ſon
1FF	.	.	.	.	.	.	.
.	.	.	.	8G/L	.	.	.
!	!	!	!	!LO:TX:t=P:problem=kreska pseudotaktowa	!	!	!
.	.	.	.	8F/J	.	.	.
.	.	1A	.	2G/	.	.	.
!LO:TX:t=P:problem=kreska pseudotaktowa	!	!	!	!	!	!	!
2F\	.	.	.	2A/	.	.	.
*	*	*Xlig	*	*	*	*	*
=12-	=12-	=12-	=12-	=12-	=12-	=12-	=12-
*	*	*lig	*	*	*	*	*
2D/	.	1B-	.	1d	-ley-	1r	.
2E\	.	.	.	.	.	.	.
*	*	*	*	*	*	*	*ij
4F\	.	1A	.	2c\	-ſon	2c\	Chri-
4E\	.	.	.	.	.	.	.
*	*	*	*	*	*	*custos:d	*
!	!	!	!	!	!	!LO:TX:t=P:problem=kreska pseudotaktowa	!
*	*	*	*	*	*ij	*	*
4D/	.	.	.	1d	Chri-	2f\	.
!LO:TX:t=P:problem=kreska pseudotaktowa	!	!	!	!	!	!	!
4C/	.	.	.	.	.	.	.
*	*	*Xlig	*	*	*	*	*
!	!	!	!	!	!	!LO:LB:g=original	!
=13-	=13-	=13-	=13-	=13-	=13-	=13-	=13-
*	*	*lig	*	*	*	*	*
2BB-/	.	1G	.	.	.	2d\	-ste
!	!	!	!	!	!	!LO:TX:t=P:problem=kreska pseudotaktowa	!
2C/	.	.	.	4c\	.	2e\	e-
!	!	!	!	!LO:TX:t=P:problem=kreska pseudotaktowa	!	!	!
.	.	.	.	4B-\	.	.	.
2.D/	.	1F	.	2A\	ste	4f\	-lei-
.	.	.	.	.	.	4e\	.
.	.	.	.	2.B-\	e-	2.d\	.
!LO:TX:t=P:problem=kreska pseudotaktowa	!	!	!	!	!	!	!
4C/	.	.	.	.	.	.	.
*	*	*Xlig	*	*	*	*	*
=14-	=14-	=14-	=14-	=14-	=14-	=14-	=14-
2.BB-/	.	1D	.	.	.	.	.
.	.	.	.	4c\	.	4e\	.
!	!	!	!	!	!	!LO:TX:t=P:problem=kreska pseudotaktowa	!
.	.	.	.	4d\	.	2f\	.
!	!	!	!	!LO:TX:t=P:problem=kreska pseudotaktowa	!	!	!
4AA/	.	.	.	4c\	.	.	.
4GG/	-ley-	1E	-lei-	4B-\	.	1g	.
4FF/	.	.	.	4A\	.	.	.
!	!	!	!	!LO:TX:t=P:problem=kreska pseudotaktowa	!	!	!
2GG/	son	.	.	2B-\	-ley-	.	.
=15-	=15-	=15-	=15-	=15-	=15-	=15-	=15-
!	!	!	!	!LO:N:vis=1	!	!	!
0FF;	.	0F;	-ſon	0A;	-ſon	0c;	-ſon
*	*	*	*	*	*Xij	*	*Xij
!LO:LB:g=original	!	!LO:LB:g=original	!	!	!	!	!
=16||-	=16||-	=16||-	=16||-	=16||-	=16||-	=16||-	=16||-
*M2/1	*	*M2/1	*	*M2/1	*	*M2/1	*
*met(c|)	*	*met(c|)	*	*met(c|)	*	*met(c|)	*
*	*	*lig	*	*	*	*	*
2r	.	1F	Ky-	2r	.	2c/	Ky-
1F	Ky-	.	.	1A	Ky-	1f	-ri-
.	.	1.c	.	.	.	.	.
4E\	-ri-	.	.	4G/	.	1g	-e
!LO:TX:t=P:problem=kreska pseudotaktowa	!	!	!	!LO:TX:t=P:problem=kreska pseudotaktowa	!	!	!
4D\	.	.	.	4F/	.	.	.
*	*	*Xlig	*	*	*	*	*
=17-	=17-	=17-	=17-	=17-	=17-	=17-	=17-
2E\	-e	.	.	2G/	-ri-	.	.
*	*	*2\right	*	*	*	*	*
!	!	!LO:TX:t=P:problem=kreska pseudotaktowa	!	!	!	!	!
!	!	!	!	!	!	!LO:TX:t=P:problem=kreska pseudotaktowa	!
2F\	e-	2c\	-ri-	2A/	.	2f\	e-
4BB-/	.	1d	-e	1.B-	-e-	1f	-le-
4C/	.	.	.	.	.	.	.
4D/	.	.	.	.	.	.	.
!LO:TX:t=P:problem=kreska pseudotaktowa	!	!	!	!	!	!	!
4E\	.	.	.	.	.	.	.
=18-	=18-	=18-	=18-	=18-	=18-	=18-	=18-
2.F\	.	1c	.	.	.	2f\	-i-
!	!	!	!	!LO:TX:t=P:problem=kreska pseudotaktowa	!	!	!
.	.	.	.	2A/	.	2.f\	-ſon
4E\	.	.	.	.	.	.	.
*	*	*lig	*	*	*	*	*
4D\	.	1f	e-	1.d	-[e]-	.	.
4E\	.	.	.	.	.	4g\	.
*	*	*	*	*	*	*	*ij
4F\	.	.	.	.	.	1a	Ky-
4G\	.	.	.	.	.	.	.
=19-	=19-	=19-	=19-	=19-	=19-	=19-	=19-
2A\	.	1e	.	.	.	.	.
!LO:TX:t=P:problem=kreska pseudotaktowa	!	!	!	!	!	!LO:TX:t=P:problem=kreska pseudotaktowa	!
2E\	.	.	.	1c	.	2g\	.
*	*	*Xlig	*	*	*	*	*
*	*	*lig	*	*	*	*	*
2F\	.	1d	.	.	.	2a\	.
*	*	*	*	*custos:c	*	*	*
!	!	!	!	!LO:TX:a:t=P:problem=# above	!	!	!
!	!	!	!	!LO:TX:t=P:problem=kreska pseudotaktowa	!	!	!
2G\	-lei-	.	.	2B-\	-ley-	2g\	.
!	!	!	!	!LO:LB:g=original	!	!	!
=20-	=20-	=20-	=20-	=20-	=20-	=20-	=20-
!LO:TX:t=P:problem=kreska pseudotaktowa	!	!	!	!	!	!LO:TX:t=P:problem=kreska pseudotaktowa	!
1C	-ſon	1c	.	4c\	.	1e	-ri-
.	.	.	.	4C/	.	.	.
.	.	.	.	4E/	.	.	.
!	!	!	!	!LO:TX:t=P:problem=kreska pseudotaktowa	!	!	!
.	.	.	.	4F/	.	.	.
*	*	*Xlig	*	*	*	*	*
*	*	*lig	*	*	*	*	*
!LO:TX:t=P:problem=kreska pseudotaktowa	!	!	!	!	!	!	!
0r	.	1B-	.	4G/	.	2.d\	-e-
.	.	.	.	4A/	.	.	.
.	.	.	.	1B-	.	.	.
.	.	.	.	.	.	4e-X\	.
=21-	=21-	=21-	=21-	=21-	=21-	=21-	=21-
.	.	1c	.	.	.	4f\	.
.	.	.	.	.	.	4g\	.
!	!	!	!	!LO:TX:t=P:problem=kreska pseudotaktowa	!	!	!
.	.	.	.	2A/	.	2.f\	-e-
*	*	*Xlig	*	*	*	*	*
*	*ij	*lig	*	*	*	*	*
1BB-	e-	1d	.	2.B-/	.	.	.
*	*	*	*	*	*	*custos:g	*
!	!	!	!	!	!	!LO:TX:t=P:problem=kreska pseudotaktowa	!
.	.	.	.	.	.	4d\	.
!	!	!	!	!	!	!LO:LB:g=original	!
.	.	.	.	.	.	4g\	-le-
!	!	!	!	!	!	!LO:TX:t=P:problem=kreska pseudotaktowa	!
.	.	.	.	4A/	.	4f\	.
=22-	=22-	=22-	=22-	=22-	=22-	=22-	=22-
!	!	!LO:TX:t=P:problem=kreska pseudotaktowa	!	!LO:TX:t=P:problem=kreska pseudotaktowa	!	!	!
1C	.	1c	.	1G	.	4eny\	.
.	.	.	.	.	.	4d\	.
.	.	.	.	.	.	2e\	-i-
*	*	*Xlig	*	*	*	*	*
*	*	*lig	*	*	*	*	*
2.D/	.	1A	.	2F/	-ſon	1.f	-ſon
!	!	!	!	!LO:TX:t=P:problem=kreska pseudotaktowa	!	!	!
*	*	*	*	*	*ij	*	*
.	.	.	.	2f\	Ky-	.	.
!LO:TX:t=P:problem=kreska pseudotaktowa	!	!	!	!	!	!	!
4C/	.	.	.	.	.	.	.
=23-	=23-	=23-	=23-	=23-	=23-	=23-	=23-
4BB-/	.	1B-	.	2d\	-ri-	.	.
4AA/	.	.	.	.	.	.	.
!LO:TX:t=P:problem=kreska pseudotaktowa	!	!	!	!	!	!	!
2GG/	.	.	.	2B-\	.	1g	Ky-
*	*	*Xlig	*	*	*	*	*
*	*	*lig	*	*	*	*	*
!	!	!	!	!LO:TX:t=P:problem=kreska pseudotaktowa	!	!	!
2.AA/	.	1A	-lei-	0c	-e	.	.
.	.	.	.	.	.	1f	-ri-
*custos:C	*	*	*	*	*	*	*
4BB-/	.	.	.	.	.	.	.
!LO:LB:g=original	!	!	!	!	!	!	!
=24-	=24-	=24-	=24-	=24-	=24-	=24-	=24-
*lig	*	*	*	*	*	*	*
1C	-lei-	1G	.	.	.	.	.
!	!	!	!	!	!	!LO:TX:t=P:problem=kreska pseudotaktowa	!
.	.	.	.	.	.	2e\	e
*	*	*Xlig	*	*	*	*	*
!	!	!LO:N:vis=0	!	!	!	!	!
1D	.	[1Fl;;	-ſon	2A/	.	4d\	e-
.	.	.	.	.	.	4e\	.
.	.	.	.	2A/	e-	1f	-le-
*Xlig	*	*	*	*	*	*	*
=25-	=25-	=25-	=25-	=25-	=25-	=25-	=25-
*lig	*	*	*	*	*	*	*
1BB-	.	0F_	.	4B-\	.	.	.
.	.	.	.	4F/	.	.	.
.	.	.	.	4B-\	.	2d\	.
!	!	!	!	!LO:TX:t=P:problem=kreska pseudotaktowa	!	!	!
.	.	.	.	4A/	.	.	.
1C	.	.	.	4G/	.	1c	-i-
.	.	.	.	4F/	.	.	.
.	.	.	.	2G/	-lei-	.	.
*Xlig	*	*	*	*	*	*	*
=26-	=26-	=26-	=26-	=26-	=26-	=26-	=26-
*	*	*	*	*custos:F	*	*	*
!LO:N:vis=1	!	!	!	!LO:N:vis=1	!	!LO:N:vis=1	!
0FF;	-ſon	0F]	.	0A;	-ſon	0c;<	-ſon
*	*Xij	*	*	*	*Xij	*	*Xij
!	!	!LO:LB:g=original	!	!LO:PB:g=original	!	!	!
=27||-	=27||-	=27||-	=27||-	=27||-	=27||-	=27||-	=27||-
*M2/1	*	*M2/1	*	*M2/1	*	*M2/1	*
*met(c|)	*	*met(c|)	*	*met(c|)	*	*met(c|)	*
*lig	*	*	*	*	*	*	*
!	!	!	!	!	!	!LO:TX:t=P:problem=kreska pseudotaktowa	!
!	!	!LO:TX:b:t=Vltimii	!	!LO:TX:b:t=Vltimii	!	!LO:TX:a:t=Vltimii	!
1C	Ky-	0r	.	00r	.	1r	.
*col	*	*	*	*	*	*	*
2.F\	.	.	.	.	.	4.c/	Ky-
.	.	.	.	.	.	8c/	-ri-
.	.	.	.	.	.	1f	-e
*Xlig	*	*	*	*	*	*	*
!LO:TX:t=P:problem=kreska pseudotaktowa	!	!	!	!	!	!	!
4F\	-ri-	.	.	.	.	.	.
*Xcol	*	*	*	*	*	*	*
=28-	=28-	=28-	=28-	=28-	=28-	=28-	=28-
!	!	!LO:TX:t=P:problem=kreska pseudotaktowa	!	!	!	!	!
1G	-e-	1r	.	.	.	.	.
!	!	!	!	!	!	!LO:TX:t=P:problem=kreska pseudotaktowa	!
.	.	.	.	.	.	2e\	e-
*	*	*lig	*	*	*	*lig	*
2A\	.	1F	Ky-	.	.	1f	-lei-
1F	-e-	.	.	.	.	.	.
=29-	=29-	=29-	=29-	=29-	=29-	=29-	=29-
*	*	*col	*	*	*	*	*
!	!	!	!	!LO:TX:t=P:problem=kreska pseudotaktowa	!	!	!
.	.	2.c\	.	1r	.	1g	.
2E\	.	.	.	.	.	.	.
*	*	*Xlig	*	*	*	*Xlig	*
!	!	!LO:TX:t=P:problem=kreska pseudotaktowa	!	!	!	!	!
.	.	4c\	-ri-	.	.	.	.
*lig	*	*Xcol	*	*	*	*	*
*	*	*lig	*	*	*	*	*
1F	-ley-	1c	-e	4.F/	Ky-	2a\	-ſon
.	.	.	.	8F/	-ri-	.	.
!	!	!	!	!	!	!LO:TX:t=P:problem=kreska pseudotaktowa	!
*	*	*	*	*	*	*	*ij
.	.	.	.	2.f\	-e	2A/	e-
=30-	=30-	=30-	=30-	=30-	=30-	=30-	=30-
1BB-	.	1d	.	.	.	2B-/	-lei-
.	.	.	.	4e\	.	.	.
*	*	*	*	*	*	*custos:f	*
!	!	!	!	!	!	!LO:TX:t=P:problem=kreska pseudotaktowa	!
.	.	.	.	4d\	.	2f\	.
.	.	.	.	8c\L	.	.	.
!	!	!	!	!LO:TX:t=P:problem=kreska pseudotaktowa	!	!	!
.	.	.	.	8B-\J	.	.	.
*Xlig	*	*Xlig	*	*	*	*	*
!	!	!	!	!	!	!LO:LB:g=original	!
*	*	*lig	*	*	*	*	*
!LO:TX:t=P:problem=kreska pseudotaktowa	!	!	!	!	!	!LO:TX:t=P:problem=kreska pseudotaktowa	!
1FF	-ſon	1c	.	4A/	.	1f	-ſon
*	*	*	*	*	*	*	*Xij
.	.	.	.	4G/	.	.	.
.	.	.	.	4F/	.	.	.
!	!	!	!	!LO:TX:t=P:problem=kreska pseudotaktowa	!	!	!
.	.	.	.	4E/	.	.	.
=31-	=31-	=31-	=31-	=31-	=31-	=31-	=31-
0r	.	1f	.	4D/	.	0r	.
.	.	.	.	4E/	.	.	.
.	.	.	.	4F/	e-	.	.
!	!	!	!	!LO:TX:t=P:problem=kreska pseudotaktowa	!	!	!
.	.	.	.	4G/	.	.	.
*	*	*Xlig	*	*	*	*	*
*	*	*lig	*	*	*	*	*
.	.	1e	e-	4A\	.	.	.
.	.	.	.	4B-\	.	.	.
.	.	.	.	4c\	.	.	.
.	.	.	.	4A\	.	.	.
=32-	=32-	=32-	=32-	=32-	=32-	=32-	=32-
*lig	*ij	*	*	*lig	*	*	*
1BB-	Ky-	1d	.	1B-	.	1r	.
*col	*	*Xlig	*	*	*	*	*
2.F\	.	1c	.	1A	.	4.c/	ky-
.	.	.	.	.	.	8c/	-ri-
*Xlig	*	*	*	*Xlig	*	*	*
.	.	.	.	.	.	1f	-e
!LO:TX:t=P:problem=kreska pseudotaktowa	!	!	!	!	!	!	!
4F\	-ri-	.	.	.	.	.	.
*Xcol	*	*	*	*	*	*	*
=33-	=33-	=33-	=33-	=33-	=33-	=33-	=33-
*lig	*	*	*	*lig	*	*	*
1G	-e	1B-	.	1G	-ley-	.	.
!	!	!	!	!	!	!LO:TX:t=P:problem=kreska pseudotaktowa	!
.	.	.	.	.	.	2e\	.
!	!	!LO:TX:t=P:problem=kreska pseudotaktowa	!	!	!	!LO:TX:t=P:problem=kreska pseudotaktowa	!
1F	.	1c	.	1A	.	0f	.
*Xlig	*	*	*	*Xlig	*	*	*
=34-	=34-	=34-	=34-	=34-	=34-	=34-	=34-
*	*	*lig	*	*	*	*	*
!	!	!	!	!LO:TX:t=P:problem=kreska pseudotaktowa	!	!	!
2BB-/	e-	1d	.	1B-	-ſon	.	.
2B-\	.	.	.	.	.	.	.
!	!	!	!	!LO:TX:t=P:problem=kreska pseudotaktowa	!	!	!
4A\	.	1c	.	0r	.	1r	.
4G\	.	.	.	.	.	.	.
*custos:F	*	*	*	*	*	*	*
!LO:TX:t=P:problem=kreska pseudotaktowa	!	!	!	!	!	!	!
2F\	.	.	.	.	.	.	.
*	*	*Xlig	*	*	*	*	*
!LO:LB:g=original	!	!	!	!	!	!	!
=35-	=35-	=35-	=35-	=35-	=35-	=35-	=35-
*	*	*lig	*	*	*	*	*ij
4F\	.	1A	.	.	.	4.c/	ky-
4E\	.	.	.	.	.	.	.
.	.	.	.	.	.	8c/	-ri-
!LO:TX:t=P:problem=kreska pseudotaktowa	!	!	!	!	!	!LO:TX:t=P:problem=kreska pseudotaktowa	!
2D/	.	.	.	.	.	2d/	-e
*	*	*	*	*	*ij	*	*Xij
1C	.	1c	.	4.G/	e-	1e	.
.	.	.	.	8G/	-ley-	.	.
!	!	!	!	!LO:TX:t=P:problem=kreska pseudotaktowa	!	!	!
.	.	.	.	2A/	.	.	.
*	*	*Xlig	*	*	*	*	*
=36-	=36-	=36-	=36-	=36-	=36-	=36-	=36-
*	*	*lig	*	*	*	*	*
2D/	.	1B-	.	0F	.	4f\	[e]-
.	.	.	.	.	.	4e\	.
1BB-	.	.	.	.	.	4d\	.
!	!	!	!	!	!	!LO:TX:t=P:problem=kreska pseudotaktowa	!
.	.	.	.	.	.	4e\	.
!	!	!LO:TX:t=P:problem=kreska pseudotaktowa	!	!	!	!	!
.	.	1c	.	.	.	4f\	.
.	.	.	.	.	.	4g\	.
!LO:TX:t=P:problem=kreska pseudotaktowa	!	!	!	!	!	!	!
2AA/	.	.	.	.	.	2f\	-lei-
*	*	*Xlig	*	*	*	*	*
=37-	=37-	=37-	=37-	=37-	=37-	=37-	=37-
*	*	*lig	*	*	*	*	*
!	!	!	!	!	!	!LO:TX:t=P:problem=kreska pseudotaktowa	!
4BB-/	-ley-	1d	.	2F/	-ſon	0f	-ſon
4C/	.	.	.	.	.	.	.
4D/	.	.	.	4.B-\	e-	.	.
4E\	.	.	.	.	.	.	.
!	!	!	!	!LO:TX:t=P:problem=kreska pseudotaktowa	!	!	!
.	.	.	.	8B-\	-ley-	.	.
!LO:TX:t=P:problem=kreska pseudotaktowa	!	!	!	!	!	!	!
1F	-ſon	1c	.	4A/	.	.	.
*	*	*	*	*custos:F	*	*	*
.	.	.	.	4G/	.	.	.
!	!	!	!	!LO:LB:g=original	!	!	!
.	.	.	.	2.F/	.	.	.
*	*Xij	*Xlig	*	*	*	*	*
=38-	=38-	=38-	=38-	=38-	=38-	=38-	=38-
*	*	*lig	*	*	*	*	*
2r	.	1A	.	.	.	2r	.
.	.	.	.	4G/	.	.	.
*	*	*	*	*	*	*	*ij
2F\	ky-	.	.	8A/L	.	2a\	e-
.	.	.	.	8B-/	.	.	.
.	.	.	.	8c/	.	.	.
!	!	!	!	!LO:TX:t=P:problem=kreska pseudotaktowa	!	!	!
.	.	.	.	8A/J	.	.	.
*	*	*	*	*lig	*	*	*
2D/	-ri-	1B-	.	1d	.	2f\	-lei-
!LO:TX:t=P:problem=kreska pseudotaktowa	!	!	!	!	!	!LO:TX:t=P:problem=kreska pseudotaktowa	!
2E\	-e	.	.	.	.	2g\	.
*	*	*Xlig	*	*	*	*	*
=39-	=39-	=39-	=39-	=39-	=39-	=39-	=39-
*	*	*lig	*	*	*	*	*
4F\	.	1A	.	1c	.	4.a\	.
4C/	.	.	.	.	.	.	.
.	.	.	.	.	.	8g\	.
1F	e-	.	.	.	.	2f\	.
*	*	*	*	*Xlig	*	*	*
*	*	*custos:F	*	*	*	*	*
.	.	1G	.	1B-	.	2g\	.
!	!	!	!	!	!	!LO:TX:t=P:problem=kreska pseudotaktowa	!
2E\	-ley-	.	.	.	.	[y2c/	.
*	*	*Xlig	*	*	*	*	*
!	!	!LO:LB:g=original	!	!	!	!	!
=40-	=40-	=40-	=40-	=40-	=40-	=40-	=40-
!LO:TX:t=P:problem=kreska pseudotaktowa	!	!	!	!	!	!LO:N:xstem:cue	!
*	*	*lig	*	*	*	*	*
1F	-ſon	1F	.	2A/	-ſon	4c/]	.
*	*	*	*	*	*Xij	*	*
.	.	.	.	.	.	4B-/	.
!	!	!	!	!LO:TX:t=P:problem=kreska pseudotaktowa	!	!	!
.	.	.	.	2c\	e-	4A/	.
.	.	.	.	.	.	8B-/L	.
*	*	*	*	*	*	*custos:d	*
.	.	.	.	.	.	8c/J	.
!	!	!	!	!	!	!LO:LB:g=original	!
*	*	*	*	*lig	*	*lig	*
1r	.	1D	.	1B-	-ley-	1d	.
*	*	*Xlig	*	*	*	*	*
=41-	=41-	=41-	=41-	=41-	=41-	=41-	=41-
2r	.	1E	.	1G	.	1.c	.
*	*ij	*	*	*	*	*	*
!LO:TX:t=P:problem=kreska pseudotaktowa	!	!	!	!	!	!	!
2C/	ky-	.	.	.	.	.	.
*	*	*	*	*Xlig	*	*Xlig	*
2AA/	-ri-	00F	-lei-	2A/	-ſon	.	.
!	!	!	!	!	!	!LO:TX:t=P:problem=kreska pseudotaktowa	!
2BB-/	-e	.	.	4F/	ky-	2B-/	-ſon
!	!	!	!	!LO:TX:t=P:problem=kreska pseudotaktowa	!	!	!
.	.	.	.	4G/	.	.	.
=42-	=42-	=42-	=42-	=42-	=42-	=42-	=42-
2FF/	e-	.	.	2.A/	-ri-	4c/	e-
.	.	.	.	.	.	4B-/	.
2.F\	.	.	.	.	.	4A/	.
.	.	.	.	4B-\	.	4G/	.
.	.	.	.	2c\	-e	2A/	-lei-
4E\	.	.	.	.	.	.	.
!	!	!	!	!LO:TX:t=P:problem=kreska pseudotaktowa	!	!	!
4D/	.	.	.	2f\	.	1d	.
4C/	.	.	.	.	.	.	.
=43-	=43-	=43-	=43-	=43-	=43-	=43-	=43-
2BB-/	.	.	.	4d\	e-	.	.
.	.	.	.	4e\	.	.	.
!	!	!	!	!	!	!LO:TX:t=P:problem=kreska pseudotaktowa	!
2AA/	.	.	.	4f\	.	2c/	.
!	!	!	!	!LO:TX:t=P:problem=kreska pseudotaktowa	!	!	!
.	.	.	.	4e\	.	.	.
0BB-	-ley-	00F	-ſon	4d\	.	4B-/	.
.	.	.	.	4c\	.	4c/	.
.	.	.	.	1B-	-ley-	4d/	.
.	.	.	.	.	.	4c/	.
=44-	=44-	=44-	=44-	=44-	=44-	=44-	=44-
.	.	.	.	.	.	4f\	.
.	.	.	.	.	.	4e-X\	.
.	.	.	.	4A/	.	1d	.
.	.	.	.	4G/	.	.	.
[1FFl	-ſon	.	.	[1Al	-ſon.	.	.
*	*Xij	*	*	*	*	*	*
.	.	.	.	.	.	4c/	.
.	.	.	.	.	.	4B-/	.
=45-	=45-	=45-	=45-	=45-	=45-	=45-	=45-
!	!	!	!	!	!	!LO:N:vis=1	!
0FF]	.	.	.	0A]	.	0cl;;	-ſon
*	*	*	*	*	*	*	*Xij
!	!	!LO:N:vis=0	!	!	!	!	!
.	.	1F;;	.	.	.	.	.
==	==	==	==	==	==	==	==
*-	*-	*-	*-	*-	*-	*-	*-
!!!system-decoration: [s1,s2,s3,s4]
!!!RDF**kern: < = below
!!!RDF**kern: l = terminal long
!!!ENC: Marta Lawrence
!!!END: 2021-03-05
!!!ENC: Andrzej Borzym
!!!END: 2021-02-22
